X:49
T:First of May, The
T:Four Provinces Fling
R:hornpipe
Z:id:hn-hornpipe-49
M:C|
K:Ador
AG | EAAB cBcA | d^cde f2 (3def | gfe^c dfe^c | d^cAF G2AG |
EAAB cBcA | d^cde f2 (3def | gfe^c dfe^c | A2AG A2 :|
|: fg | a2af g2ge | (3fga fd e2ed | ^cdef gfge | d^cAF G2AG |
EAAB cBcA | d^cde f2 (3def | gfe^c dfe^c | A2AG A2 :|
P:variations
|: AG | EAAB c2Bc | Adde f2ef | gfe^c dfe^c | d^cAF G2FG |
EAAB c2Bc | Adde f2ef | gfe^c ded^c | A2 (3GAB A2 :|
|: fg | a2af g2ge | fgfd e2ef | gfe^c dfe^c | d^cAF G2FG |
EAAB c2Bc | Adde f2ef | gfe^c ded^c | A2 (3GAB A2 :|

